src/renderer/icons/karpenter.svg

<svg viewBox="0 0 500 443" xmlns="http://www.w3.org/2000/svg" xmlns:xlink="http://www.w3.org/1999/xlink"><g id="Page-1" stroke="none" stroke-width="1" fill="none" fill-rule="evenodd"><path d="M237.704918.0C314.662629.0 377.04918 62.3865513 377.04918 139.344262L377.049 336.352 442.622951 336.351852C474.31142 336.351852 5e2 362.040432 5e2 393.728901V443h-7.546066c-18.225271.0-33.094961-14.592764-33.437541-32.814815V401.960534L459.013099 401.553891C458.795948 388.160675 447.871194 377.37037 434.42623 377.37037H106.557377C47.7073627 377.37037.0 329.663008.0 270.812993L-100611761e-22 139.344262C-100611761e-22 62.3865513 62.3865513.0 139.344262.0zm-8.196721 41.0185185H147.540984L145.778863 41.0327942C87.7415928 41.97378 40.9836066 89.3143814 40.9836066 147.575896V270.778081L40.9923916 271.862464C41.5714598 307.577706 70.7041376 336.351852 106.557377 336.351852H270.491803c36.215394.0 65.573771-29.358377 65.573771-65.573771V147.575896L336.051298 145.813774C335.110312 87.7765047 287.769711 41.0185185 229.508197 41.0185185zM147.868852 106.648148C157.213115 106.648148 164.590164 114.277593 164.590164 123.875926v49.960555l56.803279-58.574444C228.770492 108.370926 238.852459 107.878704 245.983607 114.523704V114.769815C252.868852 121.168704 252.377049 131.751481 244.754098 138.642593l-42.04918 43.315555 48.934426 69.895556C257.540984 260.467593 255.819672 271.296481 247.95082 276.464815 239.344262 281.387037 229.508197 278.679815 223.606557 270.065926l-44.016393-64.481111-15 15.751111v40.362222c0 9.84444500000001-7.377049 17.227778-16.721312 17.227778C138.52459 278.925926 131.147541 271.542593 131.147541 261.698148V123.875926c0-9.59833300000001 7.377049-17.227778 16.721311-17.227778z" id="white_square_logo" fill="#fff"></path></g></svg>

<svg xmlns="http://www.w3.org/2000/svg" viewBox="0 0 500 443"><path fill="#fff" fill-rule="evenodd" d="M237.705 0c76.958 0 139.344 62.387 139.344 139.344v197.008h65.574c31.688 0 57.377 25.688 57.377 57.377V443h-7.546c-18.225 0-33.095-14.593-33.438-32.815v-8.224l-.003-.407c-.217-13.393-11.142-24.184-24.587-24.184H106.557C47.707 377.37 0 329.663 0 270.813V139.344C0 62.387 62.387 0 139.344 0zm-8.197 41.019h-81.967l-1.762.014c-58.037.94-104.795 48.281-104.795 106.543v123.202l.008 1.084c.58 35.716 29.712 64.49 65.565 64.49h163.935c36.215 0 65.574-29.359 65.574-65.574V147.576l-.015-1.762c-.94-58.037-48.281-104.795-106.543-104.795m-81.64 65.63c9.345 0 16.722 7.629 16.722 17.227v49.96l56.803-58.574c7.377-6.891 17.46-7.383 24.59-.738v.246c6.886 6.399 6.394 16.981-1.229 23.873l-42.05 43.315 48.935 69.896c5.902 8.614 4.18 19.442-3.688 24.61-8.607 4.923-18.443 2.216-24.344-6.398l-44.017-64.481-15 15.75v40.363c0 9.845-7.377 17.228-16.721 17.228s-16.721-7.383-16.721-17.228V123.876c0-9.598 7.377-17.228 16.72-17.228"/></svg>
